X:0836
T:McFarlan's Delight.
M:6/8
L:1/8
Q:3/8=124
I: || ||
Z:Jack Campin * www.campin.me.uk * 2009
K:D
B|AFD DFA|BGE EFG|AFD DED|ecA Ace|AFD DFA|BGE EFG|AFD GFE|D2D D2:|
A|AFA Adf|gfg efg|afd dcd|ecA A2G|AFA Adf|gfg efg|afd Adc|ded d2
A|AFA Adf|gfg efg|afd dcd|ecA AGF|GBd cec|dfd efg|afd gec|d2d d2|]
<end>
<start>
